X: 28698
T: My Cup Of Coffee
R: reel
M: 4/4
K: Eminor
|:EBBB dBAF|DAFD EDB,D|A,B,DE FAde|fbaf e2fe|
dBBB AdFE|DAFD EDB,A,|B,EEE DEFA|BdAF E2z2:|
|:f2af bafe|dafd edBd|AFFF BAFD|EDB,A, B,EE2|
f2af bafe|dafd edBd|AFFF BAFD|E2DE FDD2:|

